X: 3
T: Daybrak
C: Tom Anderson
S: printed copy of unknown origin from Concord Slow Scottish Session collection
F: http://ramshaw.info/slowjamtunes/PDF/Tunes_D/Daybrak.pdf
R: air
M: C
L: 1/8
K: G
|:\
"G"(vDE) Gd "Em7"B2 B2 | "C"(BA) GE "Bm"(ED) D2 | "G"(DE) Gd "Em7"B2 B2 | "G"(de) "Bm"dB "C/Am"(BA) "D7"(AB) |
"G"(vDE) Gd "Em7"B2 B2 | "Am"(AB) "D"dA "G"B(ud- de) | "Em"(vge) "D/Em"eB "Bm"(dB) "C/Am7"AG | "D/G"(DE) "D7"(GA) "G"G4 :|
|:\
"G"(uga) gd "C"(eg) g2 | "D"(de) (dA) "G"(Bd) d2 | "Em"(gb) ge "Bm"(dB) "C"AG | "A7"(EA) AB "Am7"A2 "D7"veuf |
"Em"(vga "D/G7"g)d (eg) "C"g2 | "D/G"(BA "Em"G)A (Bd) "Bm7"d2 | "Em"(gd) "C"eB "Bm"(dB) "C/Am7"AG | "D/G"(DE) "D7"GA | "G"G2 :|
